X:580
T:Ale Is Dear, The
C:Joe Buchanan's Scottish Tome - Page 159.1
I:159 1
Z:Carl Allison
R:Reel
L:1/8
M:4/4
K:D
(de) | "Bm"f2 (ef) B2 (fe) | "Bm"f>ae>f "A"c>Ae>c | "Bm"f2 (ef) B2 (fe) | "Bm"f<a"A"e>c "Bm"B2 :|
Bc | "Bm"B>BB>c d2 (cB) | "A"A>AA>B A>Bc>A | "Bm"B>BB>c d2 (cB) | "Bm"f<a"A"e>c B2 "Bm"B2 |
"Bm"B>BB>c d2 (cB) | "A"A>AA>B A>Bc>A | "Bm"d2 (fd) "A"c2 (dc) | "Bm"d<f"A"e>c "Bm"B2 |]
